modules/themify-icons/icons/reload.svg

<?xml version="1.0" encoding="utf-8"?>
<!-- Generated by IcoMoon.io -->
<!DOCTYPE svg PUBLIC "-//W3C//DTD SVG 1.1//EN" "http://www.w3.org/Graphics/SVG/1.1/DTD/svg11.dtd">
<svg version="1.1" xmlns="http://www.w3.org/2000/svg" xmlns:xlink="http://www.w3.org/1999/xlink" width="17" height="17" viewBox="0 0 17 17">
<g>
</g>
	<path d="M6 8h-6v-6h1v4.109c1.013-3.193 4.036-5.484 7.5-5.484 3.506 0 6.621 2.36 7.574 5.739l-0.963 0.271c-0.832-2.95-3.551-5.011-6.611-5.011-3.226 0.001-6.016 2.276-6.708 5.376h4.208v1zM11 9v1h4.208c-0.693 3.101-3.479 5.375-6.708 5.375-3.062 0-5.78-2.061-6.611-5.011l-0.963 0.271c0.952 3.379 4.067 5.739 7.574 5.739 3.459 0 6.475-2.28 7.5-5.482v4.108h1v-6h-6z" fill="#000000" />
</svg>

<svg xmlns="http://www.w3.org/2000/svg" width="17" height="17"><path d="M6 8H0V2h1v4.109C2.013 2.916 5.036.625 8.5.625c3.506 0 6.621 2.36 7.574 5.739l-.963.271A6.898 6.898 0 0 0 8.5 1.624C5.274 1.625 2.484 3.9 1.792 7H6v1zm5 1v1h4.208c-.693 3.101-3.479 5.375-6.708 5.375a6.895 6.895 0 0 1-6.611-5.011l-.963.271A7.9 7.9 0 0 0 8.5 16.374c3.459 0 6.475-2.28 7.5-5.482V15h1V9h-6z"/></svg>
